X:133
T:Sonata in F Major Op.5 No.10 - Giga
C:Corelli, A.
M:6/8
L:1/8
Q:3/8=120
K:F
|:C|F2A c2A|B2G E2C|D2F A2F|G4 F|
E2G B2G|A2F D2B,|C2E G2E|F3 F:|

